packages/calcite-ui-icons/icons/web-adaptor-32.svg

<?xml version="1.0" encoding="UTF-8"?><svg id="icons" xmlns="http://www.w3.org/2000/svg" viewBox="0 0 32 32"><defs><style>.cls-1{fill:none;}.cls-1,.cls-2{stroke-width:0px;}</style></defs><rect class="cls-1" width="32" height="32"/><path class="cls-2" d="M24.05042,7.99902c.23187,1.14044,1.24158,2.00098,2.44958,2.00098s2.21771-.86053,2.44958-2.00098h2.05042v-.991l-2.0506-.009c-.2326-1.1394-1.24207-1.99902-2.4494-1.99902s-2.2168.85962-2.4494,1.99902l-4.73322.009-9.02502,8.99198h-2.3429c-.23224-1.13995-1.24182-2-2.44946-2s-2.21722.86005-2.44946,2H1v1h2.05054c.23224,1.13995,1.24182,2,2.44946,2s2.21722-.86005,2.44946-2h5.34833l8.99518,9h1.75757c.23224,1.13995,1.24182,2,2.44946,2s2.21722-.86005,2.44946-2h2.05054v-1h-2.05054c-.23224-1.13995-1.24182-2-2.44946-2s-2.21722.86005-2.44946,2h-1.34351l-7.99561-8h9.33911c.23224,1.13995,1.24182,2,2.44946,2s2.21722-.86005,2.44946-2h2.05054v-1h-2.05054c-.23224-1.13995-1.24182-2-2.44946-2s-2.21722.86005-2.44946,2h-12.34033l8.02124-8.00098h4.31897ZM26.5,6c.82715,0,1.5.67285,1.5,1.5s-.67285,1.5-1.5,1.5-1.5-.67285-1.5-1.5.67285-1.5,1.5-1.5ZM5.5,18c-.82715,0-1.5-.67285-1.5-1.5s.67285-1.5,1.5-1.5,1.5.67285,1.5,1.5-.67285,1.5-1.5,1.5ZM26.5,24c.82715,0,1.5.67285,1.5,1.5s-.67285,1.5-1.5,1.5-1.5-.67285-1.5-1.5.67285-1.5,1.5-1.5ZM26.5,15c.82715,0,1.5.67285,1.5,1.5s-.67285,1.5-1.5,1.5-1.5-.67285-1.5-1.5.67285-1.5,1.5-1.5Z"/></svg>

<svg xmlns="http://www.w3.org/2000/svg" viewBox="0 0 32 32"><path stroke-width="0" fill="none" d="M0 0h32v32H0z"/><path d="M24.05 7.999C24.282 9.139 25.292 10 26.5 10s2.218-.86 2.45-2.001H31v-.991l-2.05-.009C28.716 5.859 27.706 5 26.5 5s-2.217.86-2.45 1.999l-4.733.009L10.292 16H7.95c-.232-1.14-1.241-2-2.449-2s-2.217.86-2.45 2H1v1h2.05c.233 1.14 1.242 2 2.45 2s2.217-.86 2.45-2h5.348l8.995 9h1.758c.232 1.14 1.241 2 2.449 2s2.217-.86 2.45-2H31v-1h-2.05c-.233-1.14-1.242-2-2.45-2s-2.217.86-2.45 2h-1.343l-7.996-8h9.34c.232 1.14 1.241 2 2.449 2s2.217-.86 2.45-2H31v-1h-2.05c-.233-1.14-1.242-2-2.45-2s-2.217.86-2.45 2H11.71l8.021-8.001h4.32zM26.5 6c.827 0 1.5.673 1.5 1.5S27.327 9 26.5 9 25 8.327 25 7.5 25.673 6 26.5 6zm-21 12c-.827 0-1.5-.673-1.5-1.5S4.673 15 5.5 15s1.5.673 1.5 1.5S6.327 18 5.5 18zm21 6c.827 0 1.5.673 1.5 1.5s-.673 1.5-1.5 1.5-1.5-.673-1.5-1.5.673-1.5 1.5-1.5zm0-9c.827 0 1.5.673 1.5 1.5s-.673 1.5-1.5 1.5-1.5-.673-1.5-1.5.673-1.5 1.5-1.5z" stroke-width="0"/></svg>
